**kern
*MM76
*k[b-e-a-d-]
*M2/2
=1
1r
=2
1r
=3
1r
=4
1r
=5
1r
=6
1r
=7
1r
=8
1r
=9
1r
=10
1r
=11
1r
=12
2c
2d
=13
2e-
2F#T
=14
4G
4F
4E-
4D
=15
4C
4G
[2c
=16
1c_
=17
4c]
4B-
4A-
4G
=18
4F
4E
2F
=19
4E-
2D
[4C
=20
4C]
8BB-
8C
4D-
4B-
=21
4B-
4G
4A-
4G
=22
4F
4G
4A-
4F
=23
4D
8E-
8F
[2G
=24
4G]
4F
4E-
4D
=25
4C
4G
4c
4F#
=26
4G
8F
8E-
2D
=27
2C
2r
=28
1r
=29
1r
=30
1r
=31
1r
=32
1r
=33
1r
=34
1r
=35
1r
=36
1r
=37
1r
=38
2c
2d
=39
2e-
2F#
=40
4G
4F
4E-
4D
=41
[2C
8C]
8BB-
8AA-
8GG
=42
4FF
2F
4E
=43
8F
8G
2A-
8G
8F
=44
8E
8F
8G
8C
8D
8C
8E
8C
=45
4F
4E-
4D-
4C
=46
8BB-
8A-
8G
8F
8G
8B-
8E-
8G
=47
4A-
4F
4D-
4E-
=48
4A-
4A
4B-
4BB-
=49
2E-
2E-
=50
2AA-
8r
8A-
8G
8A-
=51
8F
8A-
8B-
8c
4B-
4BB-
=52
2E-
8r
8E-
8D-
8E-
=53
8C
8E-
8F
8G-
4F
4FF
=54
2BB-
8r
8B-
8A-
8B-
=55
8G
8B-
8c
8d-
4c
4C
=56
4F
4D
4B
4G
=57
2C
2AA
=58
1GG
=59
2C
4D
4E-
=60
4BB-
4A-
4G
4B-
=61
4E-
4A-
4D
4G
=62
4C
4F
4BB-
4E-
=63
4AA-
4D-
4GG
4C
=64
2FF
2r
=65
4A-
4G
2F
=66
2E
4F
4G
=67
2A-
[2F
=68
4F]
8E
8D
2ET
=69
2F
4r
4B-
=70
2B-
4r
4A-
=71
2A-
4r
4B-
=72
4c
8A-
8B-
4c
4d-
=73
2c
2d-
=74
8c
8B-
8A-
8G
8F
8G
4A-
=75
4G
[2.E-
=76
4E-]
8c
8B-
8A-
8G
4F
=77
4E-
4BB-
4E-
4D-
=78
4C
4BB-
4C
4AA-
=79
4E-
4D-
4C
4D-
=80
2.E-
4c
=81
1B-
=82
2A-
2d
=83
4c
4r
8r
8C
8D
8E
=84
4F
4c
8B-
8A-
4G
=85
4G
4B-
2A
=86
8F
8G
4A-
4G
4A-
=87
2G
4r
4A-
=88
2G
2F
=89
2E-
2F
=90
1r
=91
1r
=92
1r
=93
1r
=94
1r
=95
1r
=96
2F
2G
=97
2A-
2BB
=98
4C
4BB-
4AA-
4GG
=99
4FF
4r
4GG
4r
=100
4AA-
4r
4BB-
4r
=101
4BB
4r
4C
4r
=102
8F
8G
8E-
8F
8D
8G
8F
8G
=103
8C
8D
8BB-
8C
4AA
4D
=104
4GG
4BB
8C
8BB-
8AA
8GG
=105
4C
4r
4r
4C
=106
2.D-
4D
=107
2.E-
4E
=108
2.F
4BB
=109
1C
=110
4F
4d-
4B-
4c
=111
4F
4A-
4D
4G
=112
2C
4D-
4BB
=113
4C
8D
8E
4F
4AA-
=114
4BB-
8C
8D
4E-
4GG
=115
4AA-
8BB-
8C
4D-
4FF
=116
4GG
8AA-
8BB-
4C
4EE
=117
4FF
4AA-
4BB-
4D-
=118
4C
4B-
4A-
4G
=119
4F
4D
[2G
=120
8G]
8c
8d
8e-
8B
8d
8G
8B
=121
8c
8B-
8A
8G
8A
8G
8F#
8E
=122
4D
8E-
8F
4G
8A
8B
=123
4c
4B-
4A-
8G
8F
=124
4E-
4F
2E-
=125
4D
8E-
8F
[2G
=126
8G]
8A-
8G
8F
8G
8C
4c
=127
2c
4r
4e-
=128
8d-
8e-
8d-
8c
8d-
8B-
4r
=129
2c
2r
=130
2c
4r
4g
=131
2f
4r
4e
=132
2f
4r
4g
=133
2f
4r
4g
=134
2f
2r
=135
1r
=136
2r
4r
4d
=137
4G
8A-
8B-
2c
=138
1c
==
*-
